luts/HorrorBlue.3dl
#Created by: Adobe Photoshop CS6
#Copyright: Copyright 2012 Adobe Systems Inc.
0 64 128 192 256 320 384 448 512 575 639 703 767 831 895 959 1023
0 273 482
0 273 530
0 289 674
0 273 771
0 273 915
0 225 1044
0 273 1156
0 289 1285
0 321 1381
0 353 1493
0 401 1638
0 418 1750
0 498 1895
0 530 1991
0 562 2152
0 642 2329
0 707 2473
0 369 450
0 337 498
0 337 658
0 321 739
0 353 915
0 353 1012
0 353 1156
0 385 1253
0 401 1381
0 434 1510
0 450 1606
0 498 1783
0 514 1863
0 578 2023
0 642 2184
0 691 2329
0 755 2521
0 466 401
0 466 482
0 466 610
0 466 787
0 450 883
0 466 1012
0 482 1140
0 498 1285
0 498 1365
0 530 1526
0 562 1654
0 594 1766
0 642 1927
0 674 2072
0 739 2200
0 803 2393
0 851 2569
0 578 369
0 578 514
0 594 658
0 578 755
0 594 915
0 610 1028
0 626 1172
0 626 1285
0 642 1397
0 658 1510
0 707 1670
0 739 1831
0 771 1959
0 819 2136
0 883 2280
0 915 2441
0 996 2618
0 723 385
0 739 466
0 755 658
0 755 803
0 739 883
0 755 1076
0 787 1204
0 819 1349
0 819 1445
0 851 1606
0 899 1750
0 947 1927
0 964 2056
0 996 2200
0 1044 2377
0 1108 2553
0 1140 2698
0 964 466
0 947 530
0 980 739
0 980 883
0 980 1012
0 1028 1156
0 1028 1285
0 1060 1461
0 1060 1574
0 1092 1702
0 1124 1879
0 1204 2072
0 1204 2216
0 1237 2312
0 1285 2505
0 1349 2666
0 1397 2810
0 1220 594
0 1269 691
0 1285 899
0 1269 1044
0 1269 1204
0 1285 1317
0 1301 1461
0 1333 1558
0 1349 1718
0 1381 1879
0 1397 2007
0 1413 2152
0 1477 2361
0 1510 2505
0 1590 2698
0 1606 2826
0 1654 3003
0 1526 755
0 1558 819
0 1574 883
0 1574 1172
0 1590 1317
0 1606 1461
0 1638 1622
0 1638 1750
0 1654 1895
0 1702 2056
0 1750 2232
0 1718 2345
0 1815 2553
0 1831 2730
0 1895 2842
0 1927 3019
0 1975 3196
0 1911 1012
0 1911 1028
0 1959 1076
0 1927 1349
0 1927 1510
0 1959 1702
0 1975 1799
0 1975 1911
0 2007 2072
0 2039 2232
0 2056 2393
0 2104 2553
0 2104 2714
0 2184 2923
0 2200 3067
0 2200 3164
0 2312 3404
305 2264 1220
112 2264 1237
0 2296 1301
0 2296 1477
0 2296 1702
0 2296 1847
0 2296 1975
0 2329 2168
0 2345 2264
0 2409 2473
0 2425 2602
0 2457 2794
0 2489 2955
0 2489 3099
0 2505 3212
0 2585 3421
0 2634 3597
851 2618 1429
610 2666 1493
466 2682 1526
0 2698 1638
0 2698 1879
0 2682 2056
0 2714 2216
0 2714 2377
0 2714 2489
0 2730 2618
0 2778 2826
0 2794 2955
0 2826 3083
0 2826 3244
0 2842 3437
0 2858 3565
0 2858 3677
1060 2939 1574
915 2939 1558
803 2955 1638
321 2971 1686
385 2987 1943
0 3003 2184
0 2987 2329
0 3019 2473
0 3019 2602
0 3035 2778
0 3035 2858
0 3051 3035
0 3051 3164
0 3067 3260
0 3067 3453
0 3099 3661
0 3099 3774
1413 3196 1670
1349 3196 1718
1204 3212 1734
1092 3212 1799
851 3244 2039
787 3228 2184
642 3244 2425
578 3244 2537
674 3260 2682
530 3260 2842
401 3276 2971
562 3276 3067
546 3292 3244
385 3292 3388
626 3308 3517
594 3324 3710
546 3356 3902
1847 3404 1799
1670 3421 1831
1590 3453 1847
1429 3453 1895
1333 3485 2007
1269 3469 2216
1140 3469 2473
1076 3469 2618
1124 3469 2698
1044 3469 2858
1060 3485 3019
1140 3485 3131
1108 3501 3276
1156 3517 3421
1044 3517 3565
1076 3533 3726
1220 3549 3870
2023 3613 1879
1879 3629 1863
1831 3645 1911
1686 3645 1927
1493 3661 2007
1461 3661 2200
1526 3677 2473
1413 3677 2634
1397 3677 2778
1365 3677 2907
1317 3694 3067
1333 3677 3180
1397 3694 3324
1477 3694 3437
1429 3710 3565
1542 3694 3710
1574 3710 3854
2216 3806 1927
2168 3822 1959
2120 3822 1959
2007 3838 1991
1847 3854 2023
1750 3870 2216
1702 3854 2409
1750 3870 2618
1718 3854 2746
1702 3870 2923
1670 3870 3051
1670 3870 3180
1670 3870 3356
1686 3854 3469
1702 3870 3581
1638 3886 3742
1686 3870 3838
2457 3983 1991
2329 3999 1975
2377 3999 2023
2280 4015 2056
2072 4047 2088
1927 4063 2184
1911 4047 2457
1927 4047 2650
1895 4031 2810
1895 4015 2907
1783 4031 3099
1815 4031 3228
1799 4031 3356
1911 4031 3501
1879 4031 3645
1879 4047 3742
1895 4015 3870
0 257 466
0 257 546
0 257 674
0 289 803
0 257 883
0 289 1076
0 273 1156
0 305 1269
0 337 1397
0 369 1477
0 418 1622
0 434 1766
0 498 1879
0 530 1991
0 594 2152
0 658 2329
0 739 2505
0 305 401
0 337 530
0 337 658
0 353 771
0 353 899
0 353 1028
0 385 1172
0 385 1253
0 434 1397
0 434 1510
0 466 1638
0 482 1750
0 546 1895
0 594 2039
0 626 2152
0 707 2329
0 771 2521
0 434 353
0 450 450
0 450 594
0 450 771
0 450 867
0 466 1012
0 498 1156
0 482 1285
0 498 1365
0 530 1493
0 562 1654
0 578 1750
0 642 1943
0 674 2072
0 723 2200
0 803 2393
0 851 2553
0 562 353
0 578 450
0 578 658
0 594 755
0 578 883
0 594 996
0 626 1172
0 642 1269
0 658 1429
0 674 1526
0 707 1686
0 755 1847
0 787 1943
0 819 2136
0 883 2329
0 915 2441
0 996 2618
0 707 369
0 739 482
0 739 674
0 739 771
0 755 915
0 787 1092
0 803 1172
0 819 1317
0 835 1477
0 867 1638
0 899 1766
0 947 1927
0 947 2056
0 1028 2232
0 1076 2393
0 1124 2569
0 1172 2714
0 947 418
0 980 578
0 996 739
0 1028 931
0 1012 1044
0 1028 1156
0 1028 1285
0 1060 1445
0 1076 1590
0 1092 1718
0 1124 1879
0 1204 2056
0 1220 2216
0 1253 2345
0 1285 2505
0 1333 2666
0 1397 2826
0 1269 642
0 1285 707
0 1285 851
0 1269 1028
0 1301 1188
0 1301 1317
0 1285 1429
0 1333 1574
0 1365 1734
0 1381 1863
0 1413 2023
0 1445 2200
0 1461 2329
0 1510 2505
0 1590 2698
0 1654 2858
0 1686 3051
0 1542 771
0 1558 819
0 1574 867
0 1574 1140
0 1590 1317
0 1606 1461
0 1638 1638
0 1654 1750
0 1686 1895
0 1718 2072
0 1750 2216
0 1766 2377
0 1799 2537
0 1847 2714
0 1911 2875
0 1943 3035
0 1975 3164
32 1895 980
0 1911 1076
0 1927 1108
0 1943 1253
0 1943 1542
0 1943 1670
0 1943 1815
0 2007 1959
0 2007 2072
0 2023 2232
0 2072 2393
0 2104 2585
0 2104 2730
0 2168 2907
0 2216 3083
0 2200 3164
0 2296 3388
578 2264 1220
289 2280 1269
16 2280 1301
0 2312 1397
0 2296 1702
0 2280 1847
0 2345 2039
0 2345 2168
0 2361 2280
0 2393 2425
0 2409 2585
0 2441 2778
0 2489 2939
0 2505 3115
0 2553 3276
0 2602 3437
0 2618 3597
947 2650 1461
610 2666 1477
466 2682 1510
0 2682 1606
0 2682 1847
0 2714 2072
0 2698 2200
0 2714 2345
0 2730 2505
0 2778 2682
0 2794 2842
0 2794 2939
0 2826 3115
0 2826 3260
0 2842 3388
0 2875 3565
0 2891 3694
1060 2923 1558
1044 2923 1590
819 2955 1606
707 2987 1686
434 2987 1895
0 2987 2152
0 3019 2329
32 3035 2473
0 3035 2602
0 3035 2778
0 3051 2891
0 3051 3003
0 3051 3164
0 3051 3260
0 3067 3485
0 3083 3629
0 3099 3790
1493 3212 1702
1333 3196 1702
1204 3212 1734
1124 3244 1831
883 3244 2007
755 3244 2216
755 3244 2409
578 3260 2553
642 3244 2666
514 3260 2842
578 3260 2971
578 3292 3083
546 3276 3244
385 3308 3388
658 3324 3533
594 3324 3694
546 3340 3886
1783 3404 1799
1734 3421 1831
1590 3437 1831
1461 3469 1863
1349 3469 1959
1269 3469 2232
1220 3453 2473
1156 3453 2618
1092 3469 2730
1044 3469 2858
1060 3485 3019
1156 3501 3148
1108 3501 3276
1140 3501 3404
1044 3533 3581
1076 3533 3726
1220 3549 3886
2023 3597 1879
2023 3613 1879
1863 3613 1895
1750 3629 1927
1622 3645 1959
1542 3677 2216
1526 3661 2441
1413 3661 2585
1397 3694 2778
1413 3677 2923
1397 3694 3067
1349 3677 3180
1397 3677 3324
1510 3694 3404
1510 3694 3581
1558 3726 3742
1574 3726 3870
2216 3822 1927
2248 3806 1959
2152 3822 1991
2007 3838 1991
1879 3854 2056
1750 3854 2216
1702 3870 2457
1654 3854 2650
1718 3854 2746
1702 3886 2923
1686 3870 3051
1654 3870 3180
1670 3870 3340
1686 3854 3469
1702 3870 3581
1622 3870 3742
1783 3886 3870
2473 3983 1991
2425 3999 2023
2361 3999 2023
2264 4015 2056
2120 4031 2088
1943 4063 2152
1927 4047 2425
1927 4031 2650
1911 4031 2778
1911 4031 2907
1831 4015 3083
1815 4015 3212
1815 4047 3372
1911 4031 3501
1879 4031 3629
1863 4015 3726
1879 4031 3902
257 209 482
16 257 530
0 241 642
0 257 771
0 289 915
0 289 1044
0 305 1156
0 337 1269
0 353 1365
0 369 1493
0 434 1622
0 450 1766
0 514 1895
0 530 1991
0 610 2184
0 674 2329
0 739 2521
289 289 289
80 321 530
0 353 642
0 337 755
0 353 883
0 369 1012
0 385 1140
0 401 1269
0 434 1413
0 450 1510
0 466 1622
0 514 1734
0 546 1895
0 610 2056
0 642 2168
0 739 2377
0 787 2521
145 401 353
48 434 466
0 434 610
0 466 755
0 482 883
0 498 1028
0 498 1124
0 514 1301
0 514 1381
0 562 1526
0 594 1638
0 610 1750
0 658 1943
0 691 2072
0 755 2232
0 803 2393
0 883 2569
177 546 353
32 546 434
0 578 610
0 594 771
0 594 915
0 610 1028
0 642 1156
0 658 1301
0 658 1413
0 691 1542
0 739 1702
0 739 1815
0 803 1991
0 867 2184
0 883 2312
0 931 2457
0 1044 2650
209 691 273
0 739 498
0 755 594
0 771 819
0 787 915
0 803 1108
0 819 1188
0 819 1333
0 851 1493
0 867 1622
0 931 1799
0 947 1943
0 980 2088
0 1012 2184
0 1092 2425
0 1140 2537
0 1156 2698
193 947 418
0 996 610
0 1012 707
0 1028 947
0 1028 1044
0 1012 1156
0 1044 1333
0 1060 1429
0 1076 1574
0 1092 1734
0 1172 1943
0 1204 2072
0 1220 2184
0 1253 2345
0 1301 2521
0 1349 2650
0 1381 2810
0 1237 610
0 1253 691
0 1285 851
0 1285 1012
0 1301 1204
0 1317 1317
0 1317 1429
0 1333 1574
0 1349 1718
0 1397 1879
0 1461 2088
0 1461 2216
0 1510 2361
0 1542 2521
0 1622 2698
0 1638 2858
0 1686 3019
128 1526 739
0 1558 835
0 1558 915
0 1606 1156
0 1606 1349
0 1638 1510
0 1638 1622
0 1670 1750
0 1670 1879
0 1718 2072
0 1734 2216
0 1799 2409
0 1799 2537
0 1863 2730
0 1911 2891
0 1959 3067
0 2007 3212
369 1895 996
161 1911 1060
0 1911 1124
0 1943 1253
0 1975 1510
0 1975 1686
0 2007 1847
0 2023 1975
0 2023 2088
0 2056 2248
0 2072 2377
0 2104 2569
0 2104 2730
0 2184 2891
0 2200 3067
0 2248 3212
0 2312 3421
658 2264 1220
626 2264 1285
257 2280 1317
0 2296 1381
0 2296 1702
0 2280 1815
0 2377 2072
0 2361 2168
0 2409 2329
0 2393 2425
0 2425 2602
0 2505 2810
0 2505 2939
0 2505 3099
0 2553 3260
0 2585 3437
0 2618 3581
980 2650 1429
883 2666 1493
610 2682 1526
0 2698 1590
0 2682 1815
0 2698 2056
0 2698 2200
0 2714 2345
0 2730 2505
0 2762 2634
0 2794 2810
0 2794 2955
0 2826 3131
0 2842 3244
0 2842 3388
0 2858 3565
0 2858 3645
1188 2923 1574
1156 2971 1638
996 2971 1654
787 2987 1718
530 2987 1847
193 2987 2168
0 3019 2329
0 3019 2489
0 3019 2618
0 3035 2746
0 3019 2858
0 3051 3019
0 3051 3131
0 3083 3292
0 3067 3453
0 3083 3645
0 3131 3822
1526 3196 1734
1397 3212 1750
1381 3212 1831
1156 3228 1847
1060 3260 1975
980 3260 2152
771 3244 2425
851 3260 2569
707 3276 2698
755 3276 2826
626 3292 2987
562 3276 3067
546 3292 3244
498 3292 3404
851 3308 3501
594 3324 3694
546 3356 3886
1863 3421 1783
1750 3437 1847
1622 3437 1863
1622 3453 1895
1349 3485 1975
1285 3469 2184
1253 3469 2441
1253 3485 2585
1172 3469 2746
1156 3501 2875
1220 3501 3019
1188 3517 3164
1108 3501 3276
1253 3517 3437
1044 3517 3581
1172 3533 3726
1220 3549 3870
2120 3597 1847
2023 3613 1879
2007 3613 1943
1815 3645 1943
1686 3661 2023
1558 3677 2184
1542 3677 2441
1510 3677 2618
1477 3677 2778
1461 3694 2923
1477 3677 3067
1461 3694 3164
1477 3694 3340
1526 3726 3437
1526 3710 3597
1574 3726 3742
1574 3710 3854
2312 3790 1879
2248 3806 1959
2152 3822 1991
2039 3838 2023
1879 3854 2056
1831 3854 2184
1831 3870 2377
1750 3870 2634
1734 3870 2762
1766 3870 2923
1734 3854 3051
1734 3886 3196
1766 3870 3324
1718 3886 3501
1702 3870 3581
1718 3870 3710
1783 3886 3870
2505 3983 1991
2457 3983 2023
2409 3999 2056
2264 4015 2056
2216 4031 2120
1991 4063 2152
2007 4047 2393
1943 4031 2602
1959 4031 2810
1863 4031 2971
1863 4031 3067
1895 4031 3228
1863 4031 3372
1911 4031 3517
1863 4015 3629
1943 4031 3742
1895 4047 3918
546 161 434
353 241 562
289 257 642
193 257 771
128 273 867
0 305 980
0 337 1156
0 353 1269
0 369 1397
0 418 1526
0 434 1622
0 482 1734
0 514 1895
0 562 2056
0 610 2168
0 707 2361
0 771 2521
546 257 321
450 273 482
112 353 626
96 353 787
0 369 883
0 369 996
0 401 1156
0 418 1285
0 450 1397
0 466 1510
0 498 1638
0 530 1750
0 594 1927
0 610 2056
0 674 2184
0 787 2393
