luts/HorrorBlue.3dl
#Created by: Adobe Photoshop CS6
#Copyright: Copyright 2012 Adobe Systems Inc.
0 256 512 767 1023
0 273 482
0 273 915
0 321 1381
0 498 1895
0 707 2473
0 723 385
0 739 883
0 819 1445
0 964 2056
0 1140 2698
0 1911 1012
0 1927 1510
0 2007 2072
0 2104 2714
0 2312 3404
1413 3196 1670
851 3244 2039
674 3260 2682
546 3292 3244
546 3356 3902
2457 3983 1991
2072 4047 2088
1895 4031 2810
1799 4031 3356
1895 4015 3870
739 48 321
305 321 867
0 418 1381
0 562 1911
0 803 2569
658 755 353
0 835 964
0 947 1558
0 1028 2120
0 1237 2746
947 1943 964
0 2007 1445
0 2072 2120
0 2200 2826
0 2312 3404
1879 3196 1670
1365 3244 1959
1012 3260 2698
931 3308 3260
1044 3340 3886
2618 3967 1927
2377 3999 2168
2039 4031 2794
2023 4015 3340
2039 4031 3886
1638 0 0
931 578 964
867 691 1526
787 835 2104
915 1060 2762
1718 819 0
1285 980 1140
883 1156 1686
771 1301 2345
867 1493 2987
1895 2056 1060
1638 2104 1558
851 2312 2361
996 2409 2955
1044 2505 3597
2666 3164 1622
2425 3212 1943
1766 3356 2666
1718 3356 3260
1638 3404 3918
3228 3886 1847
3019 3918 2136
2489 4031 2585
2345 4015 3324
2361 4063 3886
2794 0 193
2280 787 1269
1799 1253 1943
1831 1349 2537
1959 1574 3180
3067 723 0
2650 1156 1285
1895 1638 2088
1927 1750 2746
1975 1959 3404
3212 2216 867
3067 2312 1317
2441 2505 2553
2104 2634 3131
2152 2714 3726
3533 3131 1654
3324 3196 1975
2987 3356 2618
2489 3437 3292
2489 3453 3902
3854 3822 1831
3742 3870 2088
3453 3934 2634
2907 4063 3340
2987 4063 3918
4095 0 546
3967 867 1558
3003 1879 2441
2939 2007 3035
3051 2184 3661
4095 1092 466
4095 1188 1477
3228 2104 2585
3035 2280 3115
3099 2377 3726
4095 2056 0
4095 2136 915
3902 2489 2569
3164 2842 3276
3228 2891 3918
4095 3099 1365
4095 3148 1654
4095 3260 2232
3677 3388 3340
3421 3501 3902
4095 3710 1847
4095 3710 2120
4095 3806 2618
4079 3886 3276
3726 3934 3886
