luts/HorrorBlue.3dl
#Created by: Adobe Photoshop CS6
#Copyright: Copyright 2012 Adobe Systems Inc.
0 128 256 384 512 639 767 895 1023
0 273 482
0 289 674
0 273 915
0 273 1156
0 321 1381
0 401 1638
0 498 1895
0 562 2152
0 707 2473
0 466 401
0 466 610
0 450 883
0 482 1140
0 498 1365
0 562 1654
0 642 1927
0 739 2200
0 851 2569
0 723 385
0 755 658
0 739 883
0 787 1204
0 819 1445
0 899 1750
0 964 2056
0 1044 2377
0 1140 2698
0 1220 594
0 1285 899
0 1269 1204
0 1301 1461
0 1349 1718
0 1397 2007
0 1477 2361
0 1590 2698
0 1654 3003
0 1911 1012
0 1959 1076
0 1927 1510
0 1975 1799
0 2007 2072
0 2056 2393
0 2104 2714
0 2200 3067
0 2312 3404
851 2618 1429
466 2682 1526
0 2698 1879
0 2714 2216
0 2714 2489
0 2778 2826
0 2826 3083
0 2842 3437
0 2858 3677
1413 3196 1670
1204 3212 1734
851 3244 2039
642 3244 2425
674 3260 2682
401 3276 2971
546 3292 3244
626 3308 3517
546 3356 3902
2023 3613 1879
1831 3645 1911
1493 3661 2007
1526 3677 2473
1397 3677 2778
1317 3694 3067
1397 3694 3324
1429 3710 3565
1574 3710 3854
2457 3983 1991
2377 3999 2023
2072 4047 2088
1911 4047 2457
1895 4031 2810
1783 4031 3099
1799 4031 3356
1879 4031 3645
1895 4015 3870
257 209 482
0 241 642
0 289 915
0 305 1156
0 353 1365
0 434 1622
0 514 1895
0 610 2184
0 739 2521
145 401 353
0 434 610
0 482 883
0 498 1124
0 514 1381
0 594 1638
0 658 1943
0 755 2232
0 883 2569
209 691 273
0 755 594
0 787 915
0 819 1188
0 851 1493
0 931 1799
0 980 2088
0 1092 2425
0 1156 2698
0 1237 610
0 1285 851
0 1301 1204
0 1317 1429
0 1349 1718
0 1461 2088
0 1510 2361
0 1622 2698
0 1686 3019
369 1895 996
0 1911 1124
0 1975 1510
0 2007 1847
0 2023 2088
0 2072 2377
0 2104 2730
0 2200 3067
0 2312 3421
980 2650 1429
610 2682 1526
0 2682 1815
0 2698 2200
0 2730 2505
0 2794 2810
0 2826 3131
0 2842 3388
0 2858 3645
1526 3196 1734
1381 3212 1831
1060 3260 1975
771 3244 2425
707 3276 2698
626 3292 2987
546 3292 3244
851 3308 3501
546 3356 3886
2120 3597 1847
2007 3613 1943
1686 3661 2023
1542 3677 2441
1477 3677 2778
1477 3677 3067
1477 3694 3340
1526 3710 3597
1574 3710 3854
2505 3983 1991
2409 3999 2056
2216 4031 2120
2007 4047 2393
1959 4031 2810
1863 4031 3067
1863 4031 3372
1863 4015 3629
1895 4047 3918
739 48 321
418 305 626
305 321 867
32 385 1156
0 418 1381
0 498 1654
0 562 1911
0 658 2184
0 803 2569
723 353 0
482 434 610
128 498 899
0 546 1188
0 562 1413
0 642 1702
0 723 1975
0 819 2296
0 947 2618
658 755 353
434 771 610
0 835 964
0 867 1253
0 947 1558
0 964 1847
0 1028 2120
0 1140 2425
0 1237 2746
707 1253 578
369 1285 835
0 1333 1204
0 1365 1477
0 1397 1750
0 1461 2088
0 1542 2409
0 1654 2730
0 1750 3067
947 1943 964
707 1959 1156
0 2007 1445
0 2056 1879
0 2072 2120
0 2104 2441
0 2200 2826
0 2264 3099
0 2312 3404
1365 2650 1413
1140 2666 1558
674 2714 1750
0 2714 2248
0 2794 2553
0 2810 2794
0 2858 3180
0 2858 3421
0 2923 3726
1879 3196 1670
1686 3196 1783
1365 3244 1959
1060 3276 2441
1012 3260 2698
899 3276 3003
931 3308 3260
996 3324 3533
1044 3340 3886
2312 3581 1831
2248 3597 1943
1911 3661 2072
1654 3677 2361
1638 3677 2762
1606 3694 3019
1606 3710 3324
1686 3710 3565
1686 3742 3902
2618 3967 1927
2585 3967 2023
2377 3999 2168
2088 4031 2329
2039 4031 2794
1991 4015 3083
2023 4015 3340
1991 4015 3629
2039 4031 3886
1188 0 128
883 257 642
594 434 915
562 482 1124
498 514 1413
321 594 1702
289 691 1959
96 803 2329
385 947 2650
1204 193 0
964 385 546
562 578 915
514 626 1172
337 691 1461
353 755 1766
241 819 2056
209 915 2377
450 1028 2714
1140 771 161
1028 819 450
739 883 1060
434 947 1333
64 996 1590
0 1076 1911
177 1156 2216
0 1237 2505
353 1365 2891
1172 1333 658
1060 1381 867
723 1413 1220
0 1493 1590
0 1526 1863
0 1590 2168
0 1638 2489
0 1766 2858
0 1847 3180
1413 2007 1044
1269 1975 1156
1012 2039 1493
64 2120 1911
0 2168 2216
0 2200 2537
0 2280 2842
0 2345 3180
0 2393 3485
1895 2682 1381
1734 2714 1574
1477 2746 1863
867 2826 2184
707 2810 2553
691 2842 2810
482 2858 3148
610 2939 3469
755 2955 3758
2216 3180 1654
2136 3180 1766
1879 3244 2007
1461 3292 2264
1333 3292 2730
1285 3308 2987
1413 3340 3260
1397 3356 3581
1237 3372 3886
2602 3565 1799
2569 3613 1863
2312 3645 2088
2039 3694 2296
1863 3710 2762
1847 3710 3035
1847 3726 3340
1895 3742 3597
1959 3726 3870
2907 3918 1863
2826 3918 1959
2634 3950 2168
2312 4031 2312
2168 4015 2730
2184 4015 3067
2136 4015 3356
2120 4047 3645
2120 4047 3918
1638 0 0
1429 161 626
931 578 964
899 642 1253
867 691 1526
819 771 1815
787 835 2104
915 947 2441
915 1060 2762
1622 112 0
1558 321 546
1060 723 1076
899 787 1317
899 819 1558
851 883 1895
787 1012 2200
851 1108 2521
980 1188 2810
1718 819 0
1654 835 353
1285 980 1140
899 1140 1461
883 1156 1686
771 1220 2023
771 1301 2345
867 1413 2698
867 1493 2987
1718 1397 578
1670 1461 787
1493 1510 1060
1076 1606 1718
835 1654 1975
723 1750 2312
819 1783 2602
739 1895 2955
947 1975 3276
1895 2056 1060
1831 2056 1237
1638 2104 1558
1269 2200 1959
851 2312 2361
771 2329 2650
996 2409 2955
915 2441 3260
1044 2505 3597
2280 2698 1413
2184 2746 1558
2007 2762 1815
1702 2794 2200
1301 2858 2569
1237 2907 2858
1156 2939 3196
1285 2939 3421
1188 2987 3790
2666 3164 1622
2553 3196 1718
2425 3212 1943
2104 3276 2329
1766 3356 2666
1638 3356 3035
1718 3356 3260
1622 3372 3565
1638 3404 3918
3035 3565 1750
2955 3549 1831
2794 3613 2072
2553 3661 2377
2184 3726 2602
2168 3742 3099
2152 3758 3372
2136 3726 3565
2120 3726 3870
3228 3886 1847
3164 3886 1943
3019 3918 2136
2762 3967 2441
2489 4031 2585
2393 4031 3083
2345 4015 3324
2329 4047 3645
2361 4063 3886
2152 0 0
2023 0 578
1590 674 1124
1349 931 1445
1333 931 1702
1317 980 1991
1285 1076 2296
1317 1188 2650
1429 1317 2987
2136 257 64
2152 177 610
1686 835 1204
1333 1012 1445
1333 1060 1734
1269 1124 2023
1301 1204 2377
1349 1333 2714
1429 1429 3051
2361 723 0
2104 931 530
1895 1060 1204
1349 1317 1590
1317 1365 1879
1365 1429 2216
1365 1510 2553
1381 1606 2858
1413 1702 3180
2393 1477 241
2361 1493 466
2312 1542 915
1799 1718 1815
1413 1863 2136
1413 1911 2409
1381 1975 2810
1445 2056 3115
1493 2136 3421
2569 2152 1060
2457 2184 1269
2312 2248 1510
2136 2296 1799
1750 2361 2409
1542 2457 2714
1574 2505 3019
1574 2602 3421
1622 2634 3645
2778 2730 1493
2682 2762 1606
2537 2778 1847
2345 2842 2168
2039 2907 2553
1686 2955 2891
1734 2971 3196
1718 3035 3501
1783 3051 3822
3067 3164 1654
3003 3180 1750
2875 3212 1975
2666 3260 2264
2377 3308 2634
2120 3372 3019
2088 3388 3276
2056 3437 3613
2104 3437 3870
3404 3565 1766
3340 3565 1863
3212 3597 2056
3067 3629 2312
2794 3661 2618
2457 3742 2971
2441 3742 3340
2473 3742 3565
2457 3742 3870
3565 3854 1815
3517 3854 1879
3469 3870 2023
3260 3934 2345
2939 3983 2682
2650 4063 2939
2585 4047 3372
2634 4063 3661
2569 4031 3902
2794 0 193
2746 0 707
2280 787 1269
1815 1140 1622
1799 1253 1943
1799 1317 2232
1831 1349 2537
1879 1461 2858
1959 1574 3180
2778 225 209
2778 161 658
2409 899 1317
1911 1269 1718
1799 1365 1975
1847 1413 2280
1863 1477 2602
1927 1558 2907
1879 1686 3212
3067 723 0
2810 1044 674
2650 1156 1285
2136 1510 1847
1895 1638 2088
1863 1702 2393
1927 1750 2746
1975 1847 3099
1975 1959 3404
3148 1493 0
3099 1526 257
2794 1702 1237
2569 1847 1943
1975 2120 2345
1975 2120 2618
2039 2184 2939
2088 2248 3244
2056 2312 3565
3212 2216 867
3131 2248 1028
3067 2312 1317
2939 2361 1702
2441 2505 2553
2136 2618 2842
2104 2634 3131
2136 2666 3421
2152 2714 3726
3260 2714 1477
3164 2746 1606
3083 2810 1863
2858 2826 2088
2778 2907 2409
2441 3019 2971
2280 3035 3260
2200 3083 3565
2296 3083 3854
3533 3131 1654
3501 3131 1750
3324 3196 1975
3148 3276 2312
2987 3356 2618
2730 3404 2987
2489 3437 3292
2505 3404 3565
2489 3453 3902
3774 3485 1702
3726 3517 1847
3597 3565 2023
3453 3581 2280
3228 3645 2602
3003 3694 2955
2730 3758 3340
2762 3774 3613
2762 3774 3918
3854 3822 1831
3902 3838 1895
3742 3870 2088
3677 3886 2296
3453 3934 2634
3164 3983 2939
2907 4063 3340
2891 4047 3661
2987 4063 3918
3533 0 321
3533 0 803
3148 803 1349
2666 1365 1895
2296 1574 2136
2361 1606 2457
2393 1702 2778
2393 1750 3083
2473 1863 3453
3501 209 353
3533 177 803
3244 996 1397
2730 1413 1927
2393 1702 2232
2393 1734 2521
2393 1815 2842
2425 1879 3164
2521 1959 3469
3677 851 0
3501 1076 739
3388 1188 1381
2955 1654 2039
2409 1943 2345
2473 1991 2666
2505 2056 2939
2505 2104 3260
2553 2152 3565
3902 1477 0
3822 1574 273
3581 1815 1333
3308 1959 2072
2746 2232 2521
2569 2361 2810
2634 2409 3115
2618 2441 3421
2618 2457 3661
3902 2200 385
3870 2200 594
3774 2264 1028
3501 2409 1943
3180 2537 2602
2650 2714 2891
2666 2730 3180
2682 2746 3501
2714 2794 3822
3934 2698 1172
3854 2698 1253
3742 2778 1542
3677 2810 1815
3565 2858 2152
3148 3019 3019
2810 3115 3292
2810 3115 3581
2826 3148 3918
4015 3099 1638
3950 3131 1815
3806 3164 1991
3677 3228 2264
3517 3276 2505
3404 3340 2810
3131 3421 3308
2907 3485 3613
3003 3517 3918
4095 3485 1750
4095 3485 1879
3999 3533 2039
3870 3597 2280
3710 3613 2585
3533 3710 3003
3308 3742 3308
3083 3774 3613
3083 3774 3918
4095 3790 1831
4095 3790 1911
4095 3838 2120
4063 3854 2312
3886 3902 2602
3838 3967 2971
3613 4015 3356
3356 4063 3694
3356 4047 3950
4095 0 546
4095 0 931
3967 867 1558
3501 1542 2088
3003 1879 2441
2923 1975 2714
2939 2007 3035
2971 2104 3388
3051 2184 3661
4095 145 482
4095 193 947
4031 996 1526
3517 1590 2088
3083 1975 2505
2955 2072 2762
2971 2088 3019
2987 2184 3421
3019 2216 3645
4095 1092 466
4095 1124 947
4095 1188 1477
3774 1766 2168
3228 2104 2585
3035 2264 2826
3035 2280 3115
3003 2329 3421
3099 2377 3726
4095 1317 0
4095 1574 578
4095 1831 1461
4047 1959 2007
3565 2296 2634
3099 2521 2907
3083 2553 3196
3083 2569 3469
3099 2602 3822
4095 2056 0
4095 2136 96
4095 2136 915
4095 2361 1943
3902 2489 2569
3308 2762 3003
3164 2842 3276
3180 2875 3565
3228 2891 3918
4095 2602 658
4095 2666 835
4095 2698 1172
4095 2746 1510
4031 2875 2312
3774 2987 2987
3356 3196 3340
3292 3180 3597
3308 3180 3854
4095 3099 1365
4095 3115 1429
4095 3148 1654
4095 3228 1959
4095 3260 2232
4031 3292 2537
3677 3388 3340
3437 3485 3613
3421 3501 3902
4095 3421 1766
4095 3421 1831
4095 3469 2039
4095 3517 2296
4095 3565 2553
3983 3645 2858
3806 3710 3180
3549 3758 3677
3437 3806 3918
4095 3710 1847
4095 3710 1975
4095 3710 2120
4095 3758 2329
4095 3806 2618
4095 3838 2923
4079 3886 3276
3934 3918 3581
3726 3934 3886
